/* XPM */
static char *Installer_16x16[] = {
/* columns rows colors chars-per-pixel */
"16 16 112 2 ",
"   c None",
".  c gray50",
"X  c #3E6298",
"o  c #3465A4",
"O  c #3969A6",
"+  c #3A69A6",
"@  c #43699E",
"#  c #416FAA",
"$  c #4B77AE",
"%  c #5274A8",
"&  c #5A7CAD",
"*  c #557EB3",
"=  c #5780B4",
"-  c #5A80B1",
";  c #6684AD",
":  c #6A86AC",
">  c #6485B1",
",  c #6485B3",
"<  c #6686B2",
"1  c #6284B4",
"2  c #6989B6",
"3  c #6187B8",
"4  c #6288B8",
"5  c #688DBB",
"6  c #738FB8",
"7  c #7D95B7",
"8  c #7390B8",
"9  c #7391B8",
"0  c #7190BB",
"q  c #7692BB",
"w  c #7292BD",
"e  c #7193BF",
"r  c #7493BC",
"t  c #7493BD",
"y  c #7693BC",
"u  c #7295BF",
"i  c #7796BE",
"p  c #7B9BC4",
"a  c gray54",
"s  c #8D8D8D",
"d  c #8E8E8E",
"f  c #909090",
"g  c #929292",
"h  c gray58",
"j  c gray59",
"k  c #979797",
"l  c #9A9A9A",
"z  c gray61",
"x  c #8196B2",
"c  c #899AB4",
"v  c #8199B8",
"b  c #A0A0A0",
"n  c gray63",
"m  c #A2A2A2",
"M  c #A5A5A5",
"N  c gray65",
"B  c #A7A7A7",
"V  c gray66",
"C  c #A9A9A9",
"Z  c #AAAAAA",
"A  c gray67",
"S  c #ACACAC",
"D  c gray68",
"F  c #AEAEAE",
"G  c #A5AFBE",
"H  c gray69",
"J  c #B1B1B1",
"K  c #B2B2B2",
"L  c gray70",
"P  c #B7B7B7",
"I  c gray72",
"U  c gray73",
"Y  c #BBBBBB",
"T  c gray74",
"R  c gray",
"E  c gray75",
"W  c #809DC3",
"Q  c #82A1C7",
"!  c #9FABC0",
"~  c #AFB6C1",
"^  c #B6C0CC",
"/  c #C0C0C0",
"(  c gray76",
")  c gray77",
"_  c #C5C5C5",
"`  c gray78",
"'  c #C0C6CD",
"]  c #C8C8C8",
"[  c gray79",
"{  c #CBCBCB",
"}  c gray80",
"|  c #CDCDCD",
" . c #CECECE",
".. c #D0D0D0",
"X. c LightGray",
"o. c gray83",
"O. c #D5D5D5",
"+. c gray84",
"@. c #D1D6DA",
"#. c #D8D8D8",
"$. c gray85",
"%. c #DADADA",
"&. c gray86",
"*. c gainsboro",
"=. c #DDDDDD",
"-. c gray87",
";. c #D8DCE0",
":. c gray88",
">. c #E1E1E1",
",. c #E2E2E2",
"<. c gray89",
"1. c #E4E5E6",
/* pixels */
"                                ",
"      @ w W t %                 ",
"      6 , i Q p &               ",
"    X       0 w u               ",
"      I o.o.v 5 4 7 ] ] J       ",
"      1.: q t 3 = t 0 ; @..     ",
"    I <.;.0 * $ # + 2 ^ $.J     ",
"    $.<.-.' , + o 1 ! o.$.o.    ",
"  d <.$.o...~ , - c  ...o.$.h   ",
"  / $.-.-.o...G x  ...$.$.o.I   ",
"  -.<.$.-.<.<.<.<.<.<.$.o.$.$.  ",
"  o... . .] ] ] ` ` ` / T T T   ",
"  ` V h n V S S V V P M J V M   ",
"  ` J V V S S S V M P M J V M   ",
"  M S V M n n z l h h g g d a   ",
"                                "
};
