/* XPM */
static char *Installer_32x32[] = {
/* columns rows colors chars-per-pixel */
"32 32 126 2 ",
"   c None",
".  c #4B4B4B",
"X  c #545454",
"o  c #5C5C5C",
"O  c gray38",
"+  c gray42",
"@  c gray45",
"#  c #7D7D7D",
"$  c #254F8B",
"%  c #26528C",
"&  c #2C548E",
"*  c #2D5791",
"=  c #335B93",
"-  c #395F96",
";  c #3465A4",
":  c #3A6AA7",
">  c #3F6DA9",
",  c #456799",
"<  c #52729E",
"1  c #4A6DA0",
"2  c #426FAA",
"3  c #4C70A2",
"4  c #4572AC",
"5  c #4A76AE",
"6  c #5474A3",
"7  c #5877A6",
"8  c #5C7AA6",
"9  c #5D7CA9",
"0  c #547DB2",
"q  c #5780B4",
"w  c #5B83B5",
"e  c #5E85B8",
"r  c #6580A5",
"t  c #6282AD",
"y  c #7087AC",
"u  c #728AAD",
"i  c #7E91AC",
"p  c #6584B0",
"a  c #6C8BB4",
"s  c #6187B8",
"d  c #6489B9",
"f  c #6A8EBC",
"g  c #708FB9",
"h  c #6D91BE",
"j  c #7493BD",
"k  c #7B98BF",
"l  c #7495C1",
"z  c #7798C2",
"x  c #7D9BC3",
"c  c #848484",
"v  c #8C8C8C",
"b  c #878F9B",
"n  c #959595",
"m  c #9C9C9C",
"M  c #8398B4",
"N  c #8A9BB3",
"B  c #93A0B3",
"V  c #A4A4A4",
"C  c #ACACAC",
"Z  c #A8B0BC",
"A  c #B4B4B4",
"S  c #BABABA",
"D  c #809EC5",
"F  c #84A1C6",
"G  c #8AA0C1",
"H  c #85A3C8",
"J  c #8AA6CB",
"K  c #8EA9CC",
"L  c #9BABC2",
"P  c #91ACCD",
"I  c #98B0CD",
"U  c #ABB5C4",
"Y  c #ACB8CA",
"T  c #BBC0C7",
"R  c #B7C1CE",
"E  c #C6C6C6",
"W  c gray78",
"Q  c gray77",
"!  c #C1C1C1",
"~  c #C7C7C9",
"^  c #C5C7CA",
"/  c #C8C8C8",
"(  c #C8C9C9",
")  c gray79",
"_  c #CBCBCB",
"`  c gray80",
"'  c #CDCDCD",
"]  c #CECECE",
"[  c gray81",
"{  c #CCCFD2",
"}  c #D0D0D0",
"|  c gray82",
" . c #D2D2D2",
".. c LightGray",
"X. c gray83",
"o. c #D5D5D5",
"O. c gray84",
"+. c #D7D7D7",
"@. c #D6D9DE",
"#. c #D8D8D8",
"$. c gray85",
"%. c #DADADA",
"&. c gray86",
"*. c #DADBDC",
"=. c #DBDBDC",
"-. c gainsboro",
";. c #DDDDDD",
":. c gray87",
">. c #DFDFDF",
",. c gray88",
"<. c #E1E1E1",
"1. c #E2E2E2",
"2. c gray89",
"3. c #E4E4E4",
"4. c gray90",
"5. c #E6E6E6",
"6. c #E7E7E7",
"7. c gray91",
"8. c #E8E9E9",
"9. c #E9E9E9",
"0. c gray92",
"q. c #ECECEC",
"w. c gray93",
"e. c #EEEEEE",
"r. c gray94",
"t. c #F1F1F1",
/* pixels */
"                                                                ",
"                                                                ",
"                - p j j a 3 $                                   ",
"            & j P P P K J J F 1                                 ",
"          = I P x D P J H D x F 9                               ",
"        & G 7 *     = j J x z l D 1                             ",
"        6 =             f x l j f x %                           ",
"        =               * F j h f z 1                           ",
"              n V V V V b j h f d d a b n n n n n o             ",
"            A r.0.0.0.0.0.a h d s q k Y 5.1.1.1.1.S             ",
"          X e.@.< 8 9 9 9 a f e q q D 8 9 9 9 , U 5.O           ",
"          c r.5.R t D j l l s q 0 0 f f f l x y :.:.m           ",
"          [ 5.1.5.Y p h q q q 0 0 5 2 : 2 k 9 =.&.o...          ",
"        o e.1.5.5.5.L p e 5 4 > ; ; ; : l 6 =.:.&.&.1.@         ",
"        V 0.1.5.1.:.:.M p 5 ; ; ; ; ; j 6 { &.&.&.&.&.A         ",
"        :.:.1.:.&.o.o.o.u a 4 ; ; ; f 6 T ....o.o.&.&.:.o       ",
"      @ e.:.:.&.o.o.o.o...r f 4 ; s 9 Z / [ ....o.o.&.:.v       ",
"      S 1.&.1.o.o.o.o...[ / < j e p B E / [ [ ....&.&.o.E       ",
"    X 5.&.&.:.1.:.o.o...[ [ ~ < p i / / [ [ ..o.:.:...o.:.+     ",
"    v 5.&.&.&.:.5.1.&.o.....[ ~ N [ ......o.:.5.&.o.o.o.o.V     ",
"    [ :.0.5.&.&.&.:.5.0.5.1.:.:.&.:.1.5.5.5.:.o.o.o.&.0.o...X   ",
"    0.&.:.&.&.&.&.&.&.&.:.1.5.5.5.1.1.:.&.o.o.o.o.o.o.o...5.o   ",
"    1.1.1.1.1.1.1.1.1.:.1.1.1.1.:.:.:.:.:.:.&.&.&.&.&.&.&./ o   ",
"    ..S S S S A A A A A A A A C C C C C V V V V V V V m m C o   ",
"    ..S S n n m V V C C C C C C C C C C S S V V A A V C m C o   ",
"    ..S S n v n m V V C C C C C C C C C S S V V A A V C m C o   ",
"    [ S S V n n m V V C C C C C C C C V S S V V A A V C m C o   ",
"  . [ S S Q E E Q S A A C C C C C C C V S S V V A A V C m C o   ",
"  . / E Q Q Q S S S S S S A A A A C C C C C C V V V V V V C X   ",
"    + n n n n n n n n v v v v v v c c c c c c # # # # # # +     ",
"                                                                ",
"                                                                "
};
