/* XPM */
static char *Update_32x32[] = {
/* columns rows colors chars-per-pixel */
"32 32 2 1 ",
"  c None",
". c black",
/* pixels */
"            ........            ",
"          .............       ..",
"        .................    ...",
"      ....................  ....",
"     ...........................",
"    ............................",
"    .........       ............",
"   ........           ..........",
"  .......              .........",
"  .......              .........",
" .......              ..........",
" ......              ...........",
" ......             ............",
" .....                          ",
"......                          ",
"......                          ",
"......                          ",
"......                          ",
" .....                          ",
" ......                         ",
" ......                         ",
" .......                        ",
"  .......                       ",
"  .......                       ",
"   ........                     ",
"    .........                   ",
"    ............                ",
"     ...........                ",
"       .........                ",
"        ........                ",
"          ......                ",
"            ....                "
};
